assets/icons/society.svg

<svg width="39" height="55" viewBox="0 0 39 55" fill="none" xmlns="http://www.w3.org/2000/svg">
<path d="M29.8618 19.5022C31.7579 19.8106 33.5146 18.384 33.7941 16.3145C34.0769 14.245 32.7734 12.3169 30.8773 12.0071C28.9902 11.6988 27.2276 13.1332 26.9501 15.1991C26.6693 17.2693 27.9766 19.1939 29.8618 19.5022Z" fill="white"/>
<path d="M33.2675 27.4074L34.9341 29.4648L36.0839 36.7823L38.1875 36.5251L37.792 28.5888C37.7582 28.2549 37.624 27.9373 37.4165 27.688L32.501 21.6478L32.4874 21.6635C31.9595 21.0553 31.2209 20.671 30.3973 20.6653C29.9959 20.6752 29.6185 20.7655 29.2761 20.9175L24.4521 18.2775L19.7395 12.1805L18.1443 13.2789L22.4359 20.6198C22.5611 20.779 22.7154 20.9097 22.8847 21.002L27.472 23.5149C27.463 23.6264 27.4403 23.7266 27.4403 23.8402L27.3521 34.0428C27.3501 34.1309 27.3702 34.2169 27.3715 34.3071L26.118 42.7876L25.5195 52.164L28.1646 52.6073L29.7424 43.3275L30.2793 39.6965L32.1956 54.9993L35.0223 54.5795L33.191 34.2119C33.1923 34.1764 33.2046 34.1409 33.2046 34.1018L33.2675 27.4074Z" fill="white"/>
<path d="M8.0994 19.5861C9.98843 19.2799 11.2938 17.3517 11.0124 15.2844C10.7329 13.2127 8.97291 11.7847 7.08323 12.0931C5.19096 12.3993 3.88751 14.3274 4.16895 16.399C4.45039 18.4685 6.20518 19.8958 8.0994 19.5861Z" fill="white"/>
<path d="M17.8707 10.7589L14.7586 17.9073L9.39891 20.5573C9.14276 20.477 8.87623 20.4202 8.59739 20.4202C8.58636 20.4202 8.57793 20.4202 8.56691 20.4202C7.85617 20.4265 7.21677 20.7185 6.7116 21.1888L1.12754 25.519C0.760496 25.801 0.536772 26.2543 0.513426 26.7473L0.461548 35.4779L2.7228 35.5958L3.4037 27.6787L5.6883 25.9111L5.75769 33.8595C5.75899 34.0087 5.78039 34.1536 5.80373 34.2985L4.75449 42.5006L3.512 54.4601L6.38996 55L8.37042 43.1179L8.92681 38.7338L9.98513 43.0533L10.6174 53.1692L13.52 53.0832L13.6387 42.7066C13.6354 42.5474 13.6153 42.3926 13.5777 42.2398L11.5869 34.1131C11.5927 34.0073 11.6102 33.9028 11.6102 33.7956L11.5214 23.5944C11.5194 23.4075 11.4967 23.2271 11.4663 23.053L16.49 20.5715C16.8266 20.401 17.0938 20.0983 17.2384 19.7239L19.7396 12.1819L17.8707 10.7589Z" fill="white"/>
<path d="M24.4812 9.18956H23.3282C23.0137 9.18956 22.7537 8.90326 22.7537 8.56012C22.7537 8.20845 23.0131 7.92569 23.3282 7.92569H24.4812C24.7996 7.92569 25.0577 8.20774 25.0577 8.56012C25.0577 8.90326 24.7996 9.18956 24.4812 9.18956ZM22.218 4.98804C21.9937 5.23101 21.6292 5.23101 21.4035 4.98804C21.1792 4.7408 21.1792 4.34296 21.4035 4.09288L22.218 3.20057C22.4457 2.95334 22.8088 2.95334 23.0325 3.20057C23.2569 3.44994 23.2569 3.84565 23.0325 4.09288L22.218 4.98804ZM18.143 3.50677C17.8259 3.50677 17.5684 3.22473 17.5684 2.87661V1.61417C17.5684 1.26463 17.8252 0.984009 18.143 0.984009C18.4614 0.984009 18.7214 1.26463 18.7214 1.61417V2.87661C18.7208 3.22473 18.4614 3.50677 18.143 3.50677ZM14.0692 4.98804L13.2547 4.09288C13.0304 3.84565 13.0304 3.44994 13.2547 3.20057C13.4804 2.95334 13.8455 2.95334 14.0692 3.20057L14.8844 4.09288C15.11 4.34296 15.11 4.7408 14.8844 4.98804C14.658 5.23101 14.2943 5.23101 14.0692 4.98804ZM13.5336 8.56012C13.5336 8.90255 13.2761 9.18956 12.9564 9.18956H11.8054C11.485 9.18956 11.2289 8.90326 11.2289 8.56012C11.2289 8.20845 11.485 7.92569 11.8054 7.92569H12.9564C13.2761 7.9264 13.5336 8.20845 13.5336 8.56012Z" fill="white"/>
<path d="M23.0935 45.2088L36.0677 47.0787L33.2066 34.1025L27.3631 32.9537L23.0935 45.2088Z" fill="white"/>
</svg>

<svg xmlns="http://www.w3.org/2000/svg" width="39" height="55" fill="#fff" xmlns:v="https://vecta.io/nano"><path d="M29.862 19.502c1.896.308 3.653-1.118 3.932-3.188s-1.02-3.998-2.917-4.307C29 11.7 27.228 13.133 26.95 15.2s1.027 3.995 2.912 4.303zm3.406 7.905l1.667 2.057 1.15 7.317 2.104-.257-.395-7.936a1.68 1.68 0 0 0-.376-.901l-4.916-6.04-.014.016c-.528-.608-1.267-.992-2.1-.998a2.93 2.93 0 0 0-1.121.252l-4.824-2.64-4.713-6.097-1.595 1.098 4.292 7.34a1.47 1.47 0 0 0 .449.382l4.587 2.513c-.01.1-.032.212-.032.325l-.088 10.203c-.002.088.018.174.02.264l-1.254 8.48-.598 9.376 2.645.443 1.578-9.28.537-3.63L32.196 55l2.827-.42-1.83-20.368c.001-.035.014-.07.014-.1l.063-6.694z"/><path d="M8.1 19.586c1.9-.306 3.194-2.234 2.913-4.302s-2.04-3.5-3.93-3.2S3.888 14.327 4.17 16.4s2.036 3.497 3.93 3.187zm9.77-8.826l-3.112 7.148-5.36 2.65c-.256-.08-.523-.137-.802-.137h-.03c-.7.006-1.35.298-1.855.77l-5.584 4.33c-.367.282-.6.735-.614 1.228L.46 35.48l2.26.118.68-7.917 2.285-1.768.07 7.948a2.93 2.93 0 0 0 .046.44l-1.048 8.2-1.242 11.96L6.4 55l1.98-11.882.556-4.384 1.058 4.32.632 10.116 2.903-.086.12-10.377a2.14 2.14 0 0 0-.06-.467l-2-8.127.023-.318-.1-10.2a3.36 3.36 0 0 0-.055-.54l5.024-2.482a1.58 1.58 0 0 0 .748-.848l2.5-7.542-1.87-1.423zm6.6-1.56h-1.153c-.314 0-.575-.286-.575-.63 0-.352.26-.634.575-.634h1.153c.318 0 .576.282.576.634 0 .343-.258.63-.576.63zm-2.263-4.202c-.224.243-.6.243-.814 0a.68.68 0 0 1 0-.895l.814-.892a.54.54 0 0 1 .814 0c.224.25.224.645 0 .892l-.814.895zm-4.075-1.48c-.317 0-.575-.282-.575-.63V1.614c0-.35.257-.63.575-.63s.578.28.578.63v1.262c-.001.348-.26.63-.578.63zm-4.074 1.48l-.815-.895c-.224-.247-.224-.643 0-.892a.54.54 0 0 1 .815 0l.815.892c.226.25.226.648 0 .895s-.6.243-.815 0zm-.536 3.572c0 .342-.258.63-.577.63h-1.15c-.32 0-.577-.286-.577-.63 0-.352.256-.634.577-.634h1.15c.32.001.577.283.577.634zm9.562 36.64l12.974 1.87-2.86-12.976-5.844-1.15-4.27 12.255z"/></svg>
